modules/hawcons-stroke/icons/tag-cord.svg

<?xml version="1.0" encoding="UTF-8" standalone="no"?>
<svg width="32px" height="32px" viewBox="0 0 32 32" version="1.1" xmlns="http://www.w3.org/2000/svg" xmlns:xlink="http://www.w3.org/1999/xlink" xmlns:sketch="http://www.bohemiancoding.com/sketch/ns">
    <!-- Generator: Sketch 3.0.3 (7891) - http://www.bohemiancoding.com/sketch -->
    <title>icon 145 tag cord</title>
    <desc>Created with Sketch.</desc>
    <defs></defs>
    <g id="Page-1" stroke="none" stroke-width="1" fill="none" fill-rule="evenodd" sketch:type="MSPage">
        <g id="icon-145-tag-cord" sketch:type="MSArtboardGroup" fill="#929292">
            <path d="M11.7611742,6 L17,6 L30.3809027,19.3809027 C31.1640508,20.1640508 31.168017,21.4319586 30.3884415,22.2115341 L23.2115341,29.3884415 C22.433119,30.1668566 21.1646418,30.1646418 20.3809027,29.3809027 L7,16 L7,7.99961498 C7,7.04952943 7.65331438,6.26345396 8.53219717,6.05450075 C8.69626743,6.31974037 8.83135215,6.63541089 8.92546383,7.00340428 C8.40733258,7.04608755 8,7.48465971 8,8.00844055 L8,15.5 L21.0998579,28.671163 C21.488383,29.0618028 22.1183535,29.0613199 22.5042948,28.672744 L29.6678854,21.4602516 C30.0550094,21.0704849 30.0531075,20.4413912 29.6620109,20.0535183 L16.5,7 L11.99111,7 C11.9674956,6.88580831 11.943685,6.76825104 11.9196818,6.64727665 C11.8752663,6.42342567 11.8222178,6.20767024 11.7611742,6 L11.7611742,6 L11.7611742,6 Z M12.4807254,9.00007275 C12.4871445,9.00002428 12.4935694,9 12.5,9 C13.8807119,9 15,10.1192881 15,11.5 C15,12.8807119 13.8807119,14 12.5,14 C11.1192881,14 10,12.8807119 10,11.5 C10,11.3393383 10.0151552,11.1822162 10.0441139,11.0299854 C10.6220636,12.3065487 11.3451994,12.8712697 12.422607,13.0054321 C12.428451,13.0061598 12.4344332,13.003901 12.4405382,12.998843 C12.4602634,12.999612 12.4800864,13 12.5,13 C13.3284272,13 14,12.3284272 14,11.5 C14,10.8146292 13.5403412,10.2366176 12.9124866,10.0574282 C12.9126451,10.0500589 12.912432,10.0458212 12.9118289,10.0449448 C12.7823551,9.85678577 12.6381058,9.51624889 12.4807254,9.00007275 L12.4807254,9.00007275 L12.4807254,9.00007275 Z M10.9388034,6.84189815 C10.0721912,2.47423457 5.38359326,1.85941765 3.57668735,4.7339052 C2.12779353,7.03885491 3.56137686,10.9999999 5.99999997,11.0000002 L6.00000009,10.0000002 C4.44811081,10 3.35178121,6.97072339 4.4233126,5.26609472 C5.76591896,3.13023072 9.27413436,3.59026382 9.95792501,7.03651965 C10.7668346,11.1133662 11.376935,12.0000004 13.0000002,11.9999999 L12.9999999,10.9999999 C12.0068423,11.0000002 11.665373,10.5037566 10.9388034,6.84189815 L10.9388034,6.84189815 Z" id="tag-cord" sketch:type="MSShapeGroup"></path>
        </g>
    </g>
</svg>

<svg width="32" height="32" viewBox="0 0 32 32" xmlns="http://www.w3.org/2000/svg"><path d="M11.761 6H17l13.38 13.38c.784.784.788 2.052.008 2.832l-7.176 7.176a2.003 2.003 0 0 1-2.831-.007L7 16V8c0-.95.653-1.737 1.532-1.945.164.265.3.58.393.948A1.013 1.013 0 0 0 8 8.008V15.5l13.1 13.171a.99.99 0 0 0 1.404.002l7.164-7.213a.994.994 0 0 0-.006-1.406L16.5 7h-4.509a44.723 44.723 0 0 1-.071-.353A7.404 7.404 0 0 0 11.76 6zm.72 3h.019a2.5 2.5 0 1 1-2.456 2.03c.578 1.277 1.301 1.841 2.379 1.975.005.001.011-.001.018-.006L12.5 13a1.5 1.5 0 0 0 .412-2.943.04.04 0 0 0 0-.012c-.13-.188-.274-.529-.431-1.045zm-1.542-2.158c-.867-4.368-5.555-4.983-7.362-2.108C2.127 7.039 3.56 11 6 11v-1c-1.552 0-2.648-3.03-1.577-4.734C5.766 3.13 9.274 3.59 9.958 7.036 10.767 11.114 11.377 12 13 12v-1c-.993 0-1.335-.496-2.061-4.158z" fill="#929292" fill-rule="evenodd"/></svg>
